X:1
T:Mexican Waltz
C:Traditional
M:3/4
L:1/4
Q:1/4=132
K:D
A | D2F | AFD | G2B | F2D | G2A | FDA | G2d | F2D | D2F | AFD | G2A | G2D | F2A | FDA | B2A | D3 |]
